X: 42472
T: Wexford Carol, The
R: waltz
M: 3/4
K: Fdorian
C2 F2 F =E|F6|G2 =A2 B2|c6|=A2 B2 =A2|F2 C4|D2 E2 F2|E6|
C2 F2 F =E|F6|G2 =A2 B2|c6|=A2 B2 c2|=A2 F4|G2 F2 F2|F6|
F2 F2 e2|c2 B4|G2 _A2 B2|_A6|cB _A2 G2|F2 C4|D2 E2 F2|E6|
C2 F2 F =E|F6|G2 =A2 B2|c6|=A2 B2 c2|=A2 F4|G2 F2 F2|F6|
C2 "F"F2 "F"F =E|"F"F6|"Cm"G2 "F"=A2 "Bb"B2|"F"c6|"F"=A2 "Bb"B2 "F"=A2|"F"F2 "F"C4|"Bb"D2 "Cm"E2 "F"F2|"Cm"E6|
"F"C2 "F"F2 "F"F =E|"F"F6|"Cm"G2 "F"=A2 "Bb"B2|"F"c6|"F"=A2 "Bb"B2 "F"c2|"F"=A2 "F"F4|"Cm"G2 "F"F2 "F"F2|"F"F6|
"F"F2 "F"F2 "Cm"e2|"F"c2 "Bb"B4|"Cm"G2 "Fm"_A2 "Bb"B2|"Fm"_A6|"F"cB "Fm"_A2 "Cm"G2|"F"F2 "F"C4|"Bb"D2 "Cm"E2 "F"F2|"Cm"E6|
"F"C2 "F"F2 "F"F =E|"F"F6|"Cm"G2 "F"=A2 "Bb"B2|"F"c6|"F"=A2 "Bb"B2 "F"c2|"F"=A2 "F"F4|"Cm"G2 "F"F2 "F"F2|"F"F6|

